X:1
T:Coorie Doon
M:3/4
L:1/2
K:F
 C/4C/4| F F/4F/4| A A/4A/4| c d/2| c A/2| G G/2| A G/2| F3/2-| F C/4C/4|\
 F F/4F/4| A A/4A/4| c d/2| c A/2| G G/2| A G/2| F3/2-| F c/2| c A/2|\
 F A/2| c f/2| d c/2| A A/2| c/2- B/2 G/2| F3/2-| F C/2| F F/2| A A/2|\
 c d/2| c A/2| G G/2| A G/2| F3/2-| F c/2| c/2 A| F A/2| c f/2| d c/2|\
 A3/4 A/4 c/2| c/2- B/2 G/2| F C/2| F/2 F| A A/2| c d/2| c A/2| G G/2|\
 A G/2| F||
